svg/furkot/freepik/police.svg

<svg viewBox="0 0 512 512" xmlns="http://www.w3.org/2000/svg"><path d="m304.121 470.736c-27.911-30.983-41.478-57.292-41.478-80.429v-1.354l.181-1.342c.162-1.193 1.79-13.144 3.966-28.612l-26.909-7.804-2.071-25.756c39.259-24.426 58.725-76.238 53.925-126.084-25.09 21.899-63.606 30.625-97.032 30.625-33.425 0-71.97-8.749-97.031-30.625-4.997 51.862 16.089 102.543 53.925 126.084l-2.071 25.756-102.349 29.681c-14.499 4.205-23.723 18.406-21.67 33.362l10.098 73.568c1.889 13.772 13.657 24.034 27.558 24.034h263.081c5.6 0 10.839-1.688 15.24-4.576-11.614-10.217-25.076-22.889-37.363-36.528z"/><path d="m71.567 133.775c9.347 6.288 14.974 10.072 24.265 16.321-4.828 32.633 41.447 59.874 98.873 59.874 57.493 0 103.691-27.274 98.873-59.874 9.271-6.236 14.936-10.045 24.266-16.321 5.08-3.417 7.441-9.678 5.88-15.598l-14.007-53.168c-1.797-6.821-6.415-12.553-12.695-15.764l-91.031-46.528c-7.088-3.623-15.485-3.623-22.573 0l-91.031 46.528c-6.281 3.211-10.897 8.943-12.695 15.764l-14.008 53.168c-1.559 5.922.801 12.181 5.883 15.598zm93.731-75.56c.427-2.907 2.92-5.059 5.857-5.059h47.484c2.97 0 5.48 2.2 5.87 5.144l3.488 26.343c0 13.174-20.911 31.351-29.588 38.327-2.165 1.74-5.252 1.735-7.416-.005-8.681-6.979-29.581-25.151-29.581-38.322zm307.905 235.226c-3.204-17.533-39.374-21.998-88.127-22.098-48.754.102-84.924 4.565-88.128 22.098-4.399 24.081-14.292 96.866-14.292 96.866 0 41.107 66.179 98.048 92.143 118.806 3.007 2.403 6.639 3.606 10.272 3.606 3.642 0 7.283-1.208 10.298-3.618 25.975-20.768 92.128-77.693 92.128-118.792-.001-.002-9.894-72.787-14.294-96.868zm-33.83 68.355c-1.226 0-2.382-.284-3.419-.778l-18.642 20.842 2.832 27.825c3.869.552 6.846 3.869 6.846 7.89 0 4.406-3.573 7.979-7.979 7.979s-7.978-3.573-7.978-7.979c0-.277.015-.55.041-.819l-25.998-11.472-25.664 11.326c.039.316.064.638.064.967 0 4.406-3.573 7.978-7.979 7.978s-7.978-3.572-7.978-7.978c0-3.894 2.791-7.133 6.484-7.834l2.837-27.879-18.642-20.842c-1.038.493-2.194.777-3.419.777-4.407 0-7.979-3.572-7.979-7.98 0-4.407 3.572-7.979 7.979-7.979 2.977 0 5.568 1.633 6.939 4.051l27.433-5.927 14.009-24.079c-1.277-1.414-2.063-3.284-2.063-5.342 0-4.406 3.572-7.978 7.979-7.978 4.406 0 7.98 3.572 7.98 7.978 0 2.058-.786 3.926-2.063 5.342l14.009 24.079 27.435 5.927c1.37-2.416 3.962-4.051 6.939-4.051 4.406 0 7.979 3.572 7.979 7.979-.002 4.404-3.574 7.977-7.982 7.977z"/></svg>

<svg xmlns="http://www.w3.org/2000/svg" viewBox="0 0 512 512"><path d="M304.121 470.736C276.21 439.753 262.643 413.444 262.643 390.307V388.953L262.824 387.611C262.986 386.418 264.614 374.467 266.79 358.999L239.881 351.195 237.81 325.439C277.069 301.013 296.535 249.201 291.735 199.355 266.645 221.254 228.129 229.98 194.703 229.98 161.278 229.98 122.733 221.231 97.672 199.355 92.675 251.217 113.761 301.898 151.597 325.439L149.526 351.195 47.177 380.876C32.678 385.081 23.454 399.282 25.507 414.238L35.605 487.806C37.494 501.578 49.262 511.84 63.163 511.84H326.244C331.844 511.84 337.083 510.152 341.484 507.264 329.87 497.047 316.408 484.375 304.121 470.736Z"/><path d="M71.567 133.775C80.914 140.063 86.541 143.847 95.832 150.096 91.004 182.729 137.279 209.97 194.705 209.97 252.198 209.97 298.396 182.696 293.578 150.096 302.849 143.86 308.514 140.051 317.844 133.775 322.924 130.358 325.285 124.097 323.724 118.177L309.717 65.009C307.92 58.188 303.302 52.456 297.022 49.245L205.991 2.717C198.903-0.906 190.506-0.906 183.418 2.717L92.387 49.245C86.106 52.456 81.49 58.188 79.692 65.009L65.684 118.177C64.125 124.099 66.485 130.358 71.567 133.775ZM165.298 58.215C165.725 55.308 168.218 53.156 171.155 53.156H218.639C221.609 53.156 224.119 55.356 224.509 58.3L227.997 84.643C227.997 97.817 207.086 115.994 198.409 122.97 196.244 124.71 193.157 124.705 190.993 122.965 182.312 115.986 161.412 97.814 161.412 84.643L165.298 58.215ZM473.203 293.441C469.999 275.908 433.829 271.443 385.076 271.343 336.322 271.445 300.152 275.908 296.948 293.441 292.549 317.522 282.656 390.307 282.656 390.307 282.656 431.414 348.835 488.355 374.799 509.113 377.806 511.516 381.438 512.719 385.071 512.719 388.713 512.719 392.354 511.511 395.369 509.101 421.344 488.333 487.497 431.408 487.497 390.309 487.496 390.307 477.603 317.522 473.203 293.441ZM439.373 361.796C438.147 361.796 436.991 361.512 435.954 361.018L417.312 381.86 420.144 409.685C424.013 410.237 426.99 413.554 426.99 417.575 426.99 421.981 423.417 425.554 419.011 425.554 414.605 425.554 411.033 421.981 411.033 417.575 411.033 417.298 411.048 417.025 411.074 416.756L385.076 405.284 359.412 416.61C359.451 416.926 359.476 417.248 359.476 417.577 359.476 421.983 355.903 425.555 351.497 425.555 347.091 425.555 343.519 421.983 343.519 417.577 343.519 413.683 346.31 410.444 350.003 409.743L352.84 381.864 334.198 361.022C333.16 361.515 332.004 361.799 330.779 361.799 326.372 361.799 322.8 358.227 322.8 353.819 322.8 349.412 326.372 345.84 330.779 345.84 333.756 345.84 336.347 347.473 337.718 349.891L365.151 343.964 379.16 319.885C377.883 318.471 377.097 316.601 377.097 314.543 377.097 310.137 380.669 306.565 385.076 306.565 389.482 306.565 393.056 310.137 393.056 314.543 393.056 316.601 392.27 318.469 390.993 319.885L405.002 343.964 432.437 349.891C433.807 347.475 436.399 345.84 439.376 345.84 443.782 345.84 447.355 349.412 447.355 353.819 447.353 358.223 443.781 361.796 439.373 361.796Z"/></svg>
